tools/download-figma-icons/icons/solid/pen.svg

<svg width="24" height="24" viewBox="0 0 24 24" fill="none" xmlns="http://www.w3.org/2000/svg">
<path fill-rule="evenodd" clip-rule="evenodd" d="M19.68 7.20472L18.825 8.05222L15.9525 5.17972L16.8075 4.32472C17.595 3.55222 18.8842 3.55222 19.6725 4.33972C20.4525 5.12647 20.46 6.40897 19.68 7.20472ZM20.7292 3.28224C19.365 1.91724 17.1375 1.90224 15.75 3.25974L2.25 16.7597V21.7622H7.245L20.745 8.26224V8.25399C22.1017 6.88149 22.095 4.64724 20.7292 3.28224Z" fill="black"/>
</svg>

<svg width="24" height="24" viewBox="0 0 24 24" fill="none" xmlns="http://www.w3.org/2000/svg"><path fill-rule="evenodd" clip-rule="evenodd" d="m19.68 7.205-.855.847-2.872-2.872.855-.855a2.046 2.046 0 0 1 2.864.015c.78.786.788 2.069.008 2.865Zm1.05-3.923a3.546 3.546 0 0 0-4.98-.022l-13.5 13.5v5.002h4.995l13.5-13.5v-.008a3.537 3.537 0 0 0-.016-4.972Z" fill="currentColor"/></svg>
